X: 13064
T: Finney's
R: reel
M: 4/4
K: Gmajor
DGFG BGFG|DGFG E2DB,|DGFG BABc|dged BAA2|
DGFG BGFG|DGFG E2DB,|DGFG B3c|dBAc BGG2|
dBB2 cAA2|BdBG cABc|dBB2 cABd|gedB AGAB|
dBB2 cAA2|BGBd edef|gcBc ecge|dBGB A2 GE|
D3G FGDB,|G,DGB cAdc|BEED EFGE|DG,B,G, A,B,CE|
D3G FGDB,|G,DGB cAdc|BedB BAGD|DBBA G4||

